src/assets/img/providers-white/quickspin.svg

<svg width="102" height="28" viewBox="0 0 102 28" fill="none" xmlns="http://www.w3.org/2000/svg">
<path d="M18.3195 7.47808e-06H2.79162C2.29809 7.47808e-06 1.82477 0.196062 1.47579 0.545042C1.12681 0.894022 0.930756 1.36734 0.930756 1.86087L0.930756 26.1391C0.930756 26.3835 0.978888 26.6255 1.07241 26.8513C1.16592 27.077 1.30299 27.2822 1.47579 27.455C1.64859 27.6278 1.85373 27.7648 2.0795 27.8584C2.30527 27.9519 2.54725 28 2.79162 28H18.3195C18.5643 28.0007 18.8068 27.9531 19.0332 27.8599C19.2596 27.7667 19.4654 27.6297 19.6387 27.4568C19.8121 27.284 19.9496 27.0786 20.0435 26.8525C20.1373 26.6264 20.1856 26.384 20.1856 26.1391V1.86087C20.1856 1.61605 20.1373 1.37364 20.0435 1.14753C19.9496 0.921414 19.8121 0.71604 19.6387 0.543173C19.4654 0.370307 19.2596 0.233347 19.0332 0.14014C18.8068 0.046934 18.5643 -0.000686545 18.3195 7.47808e-06ZM16.9176 14.937C16.918 15.9444 16.5943 16.9251 15.9944 17.7343L13.5031 21.092L16.3914 23.7639C16.4521 23.8208 16.4944 23.8946 16.5127 23.9757C16.5311 24.0569 16.5246 24.1417 16.4942 24.2191C16.4638 24.2966 16.4108 24.3631 16.3422 24.4101C16.2735 24.4571 16.1923 24.4824 16.1091 24.4827H12.4705C12.2623 24.4838 12.0613 24.4066 11.9073 24.2664L11.4603 23.8523L11.1015 23.52L10.5582 23.0122L9.19584 21.7606C9.12126 21.691 9.07483 21.5964 9.06535 21.4948C9.05587 21.3932 9.084 21.2916 9.14441 21.2094L13.0033 16.0066C13.4277 15.4344 13.6566 14.7408 13.6561 14.0284V9.65382C13.6561 8.24927 13.1167 7.64788 12.9136 7.4883C12.6789 7.30631 12.1817 6.87109 10.5582 6.87109C8.93471 6.87109 8.43488 7.30631 8.20013 7.4883C7.99439 7.6492 7.45499 8.24927 7.45499 9.65382V14.2882C7.45501 14.6689 7.53375 15.0455 7.68627 15.3943C7.83878 15.7431 8.06177 16.0567 8.34124 16.3152L9.63501 17.5127C9.71085 17.5824 9.75821 17.6777 9.76795 17.7802C9.77769 17.8827 9.74913 17.9852 9.68776 18.0679L8.13946 20.1504C8.10487 20.197 8.06084 20.2359 8.01024 20.2645C7.95964 20.293 7.9036 20.3106 7.84577 20.3161C7.78793 20.3215 7.72959 20.3148 7.67453 20.2962C7.61947 20.2777 7.56894 20.2477 7.52621 20.2084L5.69963 18.5177C5.22469 18.078 4.84574 17.545 4.58657 16.9519C4.32739 16.3589 4.19358 15.7187 4.19353 15.0716V8.25059C4.19353 6.28817 4.78964 5.40192 5.47543 4.79922C6.25222 4.11606 7.64094 3.516 10.5555 3.516C13.4702 3.516 14.8589 4.11606 15.6357 4.79922C16.3215 5.40192 16.9176 6.28817 16.9176 8.25059V14.937Z" fill="white"/>
<path d="M99.4985 14.8779V23.292V24.2152L95.0567 16.1532C94.5186 15.1931 94.1481 14.8806 93.4478 14.8806C92.7475 14.8806 92.2529 15.3646 92.2529 16.3313V18.2001V26.6142H93.8236V18.2001V17.2769L98.2602 25.3389C98.7982 26.299 99.1688 26.6115 99.8691 26.6115C100.569 26.6115 101.065 26.1275 101.065 25.1608V23.292V14.8779H99.4985Z" fill="white"/>
<path d="M68.208 14.8838H66.057L61.7286 19.5063V14.8904H60.1592V26.6345H61.7286V21.8024L62.1916 21.3078L66.1757 26.6279H68.212L63.2769 20.1499L68.208 14.8838Z" fill="white"/>
<path d="M84.5628 15.588C83.6884 15.013 82.6874 14.8838 81.701 14.8838H78.8088V26.6279H80.4362V22.5H81.701C82.6874 22.5 83.6884 22.3681 84.5628 21.7958C85.4372 21.2234 86.1586 20.2409 86.1586 18.6926C86.1586 17.1443 85.4306 16.1604 84.5628 15.588ZM83.7293 20.4901C83.2928 20.8357 82.6149 21.0493 81.701 21.0493H80.4362V16.3345H81.701C82.6149 16.3345 83.2928 16.5481 83.7293 16.8937C84.0028 17.1069 84.224 17.3797 84.3762 17.6913C84.5283 18.0029 84.6074 18.3451 84.6074 18.6919C84.6074 19.0387 84.5283 19.3809 84.3762 19.6925C84.224 20.0041 84.0028 20.2769 83.7293 20.4901Z" fill="white"/>
<path d="M33.1523 25.2461C33.3578 24.9873 33.5347 24.7069 33.6799 24.41C34.1032 23.5382 34.1006 22.5372 34.0992 21.8752V19.5646C34.0992 18.9052 34.0992 17.9016 33.6799 17.0298C32.9294 15.4842 31.5882 14.7087 29.9964 14.7061H29.9766C28.3861 14.7061 27.0448 15.4842 26.2944 17.0298C25.8711 17.9016 25.8737 18.9026 25.875 19.5646V21.8752C25.875 22.5346 25.875 23.5382 26.2944 24.41C27.0462 25.9583 28.3914 26.7338 29.9871 26.7338C30.6056 26.7399 31.2177 26.6089 31.7794 26.35L33.0429 27.9998H35.2677L33.1523 25.2461ZM32.5219 21.9425C32.5219 22.4792 32.5285 23.2125 32.2582 23.7651C31.9746 24.348 31.2981 25.2303 29.9779 25.2303C28.6578 25.2303 27.9838 24.348 27.7029 23.7651C27.422 23.1822 27.4392 22.35 27.4392 21.8132V19.6266C27.4392 19.0898 27.4181 18.2577 27.7029 17.6747C27.9878 17.0918 28.663 16.2095 29.9832 16.2095C31.3033 16.2095 31.9799 17.0918 32.2634 17.6747C32.547 18.2577 32.5272 19.0898 32.5272 19.6266V21.9425H32.5219Z" fill="white"/>
<path d="M53.5295 16.7845C54.603 15.9748 55.8282 15.8904 57.7194 16.3308V15.2455C57.7194 15.2455 56.7831 14.7061 55.2967 14.7061C53.8104 14.7061 52.9439 15.0898 52.2542 15.7044C51.4629 16.4034 50.8628 17.5231 50.6874 19.2652C50.6352 19.7629 50.6114 20.2631 50.6162 20.7634C50.6114 21.2633 50.6351 21.7631 50.6874 22.2603C50.8628 23.9972 51.4682 25.1169 52.2542 25.8211C52.9439 26.4344 53.7999 26.8182 55.2967 26.8182C56.7936 26.8182 57.7194 26.2788 57.7194 26.2788V25.1894C55.8282 25.6299 54.603 25.5455 53.5295 24.737C52.4349 23.9128 52.2173 22.3763 52.2107 20.7634C52.2041 19.1505 52.4349 17.6088 53.5295 16.7845Z" fill="white"/>
<path d="M74.2034 16.079C75.0043 16.1116 75.8024 16.194 76.5931 16.3256V15.0609C75.5593 14.7846 74.4891 14.669 73.42 14.718C72.7976 14.7407 72.179 14.8259 71.5737 14.9725C70.7112 15.1954 70.2324 15.6055 69.9647 16.0104C69.7995 16.2605 69.6946 16.5456 69.6585 16.8431C69.6223 17.1406 69.6558 17.4425 69.7563 17.7249C69.7594 17.7327 69.762 17.7406 69.7643 17.7486C69.7827 17.8001 69.8025 17.8515 69.8249 17.9043C70.1283 18.6876 70.5898 19.2877 71.244 19.9972C71.9456 20.7569 73.4016 22.1166 74.0135 22.8472C74.3947 23.3154 74.8431 23.9392 74.6202 24.4773C74.3749 25.0668 73.3013 25.4756 72.0181 25.4387C71.2175 25.4005 70.4197 25.3173 69.6284 25.1895V26.4476C69.6284 26.4476 70.6228 26.8855 72.8002 26.7984C74.9776 26.7114 75.8427 26.1285 76.2542 25.506C76.4603 25.1604 76.5759 24.7686 76.5905 24.3665V24.3335C76.5918 24.2662 76.5891 24.1988 76.5826 24.1318C76.5509 23.5291 76.427 23.0767 75.6594 22.1878C74.7982 21.1961 73.2539 19.7322 72.5588 19.0094L72.3676 18.809C71.8585 18.263 71.3007 17.5825 71.5605 16.9336C71.8348 16.2531 73.0481 16.0553 74.2034 16.079Z" fill="white"/>
<path d="M48.4692 14.8838H46.8417V26.6279H48.4692V14.8838Z" fill="white"/>
<path d="M89.8038 14.8662H88.1764V26.6104H89.8038V14.8662Z" fill="white"/>
<path d="M37.8777 14.8838H36.3069V22.5805C36.3069 23.9573 36.7712 26.8007 40.3017 26.8007C43.8322 26.8007 44.2977 23.952 44.2977 22.5805V14.8838H42.727V22.5805C42.727 25.0348 41.0468 25.3434 40.3017 25.3434C39.5565 25.3434 37.8777 25.0348 37.8777 22.5805V14.8838Z" fill="white"/>
</svg>

<svg xmlns="http://www.w3.org/2000/svg" width="102" height="28" fill="none"><path fill="#fff" d="M18.32 0H2.792A1.86 1.86 0 0 0 .93 1.86v24.28A1.861 1.861 0 0 0 2.79 28H18.32a1.86 1.86 0 0 0 1.866-1.86V1.86A1.862 1.862 0 0 0 18.32 0Zm-1.402 14.937a4.694 4.694 0 0 1-.924 2.797l-2.49 3.358 2.887 2.672a.416.416 0 0 1-.282.719H12.47a.83.83 0 0 1-.563-.217l-.447-.414-.359-.332-.543-.508-1.362-1.251a.416.416 0 0 1-.052-.552l3.86-5.202a3.317 3.317 0 0 0 .652-1.979V9.654c0-1.405-.54-2.006-.742-2.166-.235-.182-.732-.617-2.356-.617-1.623 0-2.123.435-2.358.617-.206.161-.745.761-.745 2.166v4.634a2.761 2.761 0 0 0 .886 2.027l1.294 1.198a.417.417 0 0 1 .053.555L8.139 20.15a.416.416 0 0 1-.613.058L5.7 18.518a4.696 4.696 0 0 1-1.506-3.446V8.25c0-1.963.596-2.85 1.281-3.452.777-.683 2.166-1.283 5.08-1.283 2.915 0 4.304.6 5.08 1.283.687.603 1.283 1.49 1.283 3.452v6.686ZM99.499 14.878v9.337l-4.442-8.062c-.538-.96-.909-1.272-1.61-1.272-.7 0-1.194.484-1.194 1.45V26.614h1.57v-9.337l4.437 8.062c.538.96.909 1.273 1.61 1.273.699 0 1.195-.484 1.195-1.451V14.878h-1.566ZM68.208 14.884h-2.151l-4.328 4.622V14.89h-1.57v11.744h1.57v-4.832l.463-.494 3.984 5.32h2.036l-4.935-6.478 4.931-5.266ZM84.563 15.588c-.875-.575-1.876-.704-2.862-.704h-2.892v11.744h1.627V22.5h1.265c.986 0 1.987-.132 2.862-.704.874-.573 1.596-1.555 1.596-3.103 0-1.549-.728-2.533-1.596-3.105Zm-.834 4.902c-.436.346-1.114.56-2.028.56h-1.265v-4.716h1.265c.914 0 1.592.214 2.028.56a2.28 2.28 0 0 1 0 3.596ZM33.152 25.246c.206-.259.383-.54.528-.836.423-.872.42-1.873.42-2.535v-2.31c0-.66 0-1.663-.42-2.535-.75-1.546-2.092-2.321-3.684-2.324h-.02c-1.59 0-2.931.778-3.682 2.324-.423.872-.42 1.873-.419 2.535v2.31c0 .66 0 1.663.42 2.535.751 1.548 2.096 2.324 3.692 2.324a4.183 4.183 0 0 0 1.792-.384L33.043 28h2.225l-2.116-2.754Zm-.63-3.303c0 .536.007 1.27-.264 1.822-.283.583-.96 1.465-2.28 1.465-1.32 0-1.994-.882-2.275-1.465-.281-.583-.264-1.415-.264-1.952v-2.186c0-.537-.02-1.37.264-1.952.285-.583.96-1.466 2.28-1.466 1.32 0 1.997.883 2.28 1.466.284.583.264 1.415.264 1.952v2.316h-.005ZM53.53 16.785c1.073-.81 2.298-.895 4.19-.454v-1.085s-.937-.54-2.423-.54c-1.487 0-2.353.384-3.043.998-.791.7-1.391 1.82-1.567 3.561-.052.498-.076.998-.07 1.498-.006.5.018 1 .07 1.497.176 1.737.781 2.857 1.567 3.561.69.613 1.546.997 3.043.997s2.422-.54 2.422-.54V25.19c-1.89.44-3.116.357-4.19-.452-1.094-.824-1.312-2.36-1.318-3.974-.007-1.613.224-3.154 1.319-3.979ZM74.203 16.079c.801.033 1.6.115 2.39.247V15.06a10.438 10.438 0 0 0-3.173-.343 9.28 9.28 0 0 0-1.846.255c-.863.222-1.342.632-1.61 1.037a1.934 1.934 0 0 0-.2 1.739c.019.051.038.103.06.155.304.784.766 1.384 1.42 2.093.702.76 2.158 2.12 2.77 2.85.38.468.83 1.092.606 1.63-.245.59-1.319.999-2.602.962-.8-.038-1.598-.122-2.39-.25v1.259s.995.438 3.172.35c2.178-.087 3.043-.67 3.454-1.292.206-.346.322-.737.337-1.14v-.032a1.741 1.741 0 0 0-.008-.202c-.032-.603-.156-1.055-.924-1.944-.86-.992-2.405-2.456-3.1-3.179l-.191-.2c-.51-.546-1.067-1.227-.807-1.875.274-.68 1.487-.879 2.642-.855ZM48.47 14.884h-1.628v11.744h1.627V14.884ZM89.804 14.866h-1.628V26.61h1.628V14.866ZM37.878 14.884h-1.571v7.697c0 1.376.464 4.22 3.995 4.22 3.53 0 3.996-2.849 3.996-4.22v-7.697h-1.571v7.697c0 2.454-1.68 2.762-2.425 2.762-.745 0-2.424-.308-2.424-2.762v-7.697Z"/></svg>
